SharedPackages/Infrastructure/DesignResourcesKitIcons/Sources/DesignResourcesKitIcons/DesignSystemImages.xcassets/Color/24px/Settings-Color-24.imageset/Settings-Color-24.svg

<svg width="24" height="24" viewBox="0 0 24 24" fill="none" xmlns="http://www.w3.org/2000/svg">
<path fill-rule="evenodd" clip-rule="evenodd" d="M14.1922 19.8063C14.1922 20.6727 13.4899 21.375 12.6235 21.375H11.3761C10.5097 21.375 9.80732 20.6726 9.80732 19.8062C9.80732 18.4919 8.28797 17.7602 7.26037 18.5796C6.58295 19.1198 5.59586 19.0086 5.05566 18.3311L4.27802 17.356C3.73783 16.6785 3.8491 15.6914 4.52652 15.1513C5.55408 14.3318 5.17897 12.6878 3.89767 12.3953C3.05301 12.2024 2.52459 11.3614 2.71743 10.5167L2.99509 9.30048C3.18791 8.45587 4.02891 7.9275 4.87352 8.12032C6.15473 8.41281 7.20608 7.09452 6.63597 5.91044C6.26013 5.12984 6.58823 4.19232 7.36883 3.81648L8.49334 3.27505C9.27366 2.89933 10.2108 3.22734 10.5865 4.00766C11.1565 5.19148 12.8424 5.19141 13.4124 4.00759C13.7881 3.22724 14.7253 2.89919 15.5057 3.27491L16.6299 3.81623C17.4106 4.19212 17.7388 5.12974 17.3629 5.91044C16.7927 7.09472 17.8443 8.41315 19.1258 8.12061C19.9705 7.92775 20.8117 8.45623 21.0046 9.301L21.2822 10.5169C21.475 11.3616 20.9465 12.2027 20.1019 12.3955C18.8205 12.688 18.4453 14.3321 19.4729 15.1515C20.1503 15.6916 20.2615 16.6787 19.7213 17.3561L18.9436 18.3314C18.4034 19.0088 17.4164 19.12 16.739 18.5798C15.7115 17.7604 14.1922 18.4921 14.1922 19.8063ZM11.9998 8.99994C13.6567 8.99994 14.9998 10.3431 14.9998 11.9999C14.9998 13.6568 13.6567 14.9999 11.9998 14.9999C10.343 14.9999 8.99982 13.6568 8.99982 11.9999C8.99982 10.3431 10.343 8.99994 11.9998 8.99994Z" fill="#CCCCCC"/>
<path d="M13.5674 19.8063C13.5674 20.3275 13.1448 20.75 12.6236 20.75H11.3762C10.8549 20.75 10.4325 20.3274 10.4325 19.8062C10.4324 17.9682 8.30779 16.9451 6.87082 18.0909C6.476 18.4058 5.90633 18.3528 5.57565 17.9786L5.5444 17.9415L4.76681 16.9663C4.44185 16.5588 4.50869 15.9649 4.91623 15.6399L4.98215 15.5853C6.31493 14.4411 5.81726 12.2593 4.11996 11.8065L4.03683 11.7859C3.52872 11.6699 3.21087 11.1639 3.32687 10.6558L3.60446 9.43958C3.72045 8.9315 4.22639 8.61365 4.73447 8.72961C6.52621 9.13866 7.99642 7.29508 7.19919 5.63928C6.97309 5.16967 7.17054 4.60573 7.64011 4.37964L8.76462 3.83813C9.23393 3.61221 9.79757 3.80951 10.0235 4.27881C10.8207 5.93448 13.1784 5.93426 13.9756 4.27869C14.2015 3.80935 14.7653 3.61207 15.2346 3.83801L16.3589 4.37939C16.8139 4.59848 17.0134 5.13465 16.8198 5.59497L16.7999 5.63928C16.0025 7.29538 17.4731 9.13906 19.265 8.72998C19.7732 8.61396 20.2793 8.93185 20.3954 9.44006L20.6729 10.656L20.6826 10.7036C20.7689 11.1954 20.4551 11.6737 19.9629 11.7861C18.1711 12.1952 17.6464 14.4942 19.0833 15.6401C19.4781 15.9549 19.5532 16.522 19.2621 16.9276L19.2328 16.9664L18.455 17.9417C18.1301 18.3492 17.5363 18.4162 17.1288 18.0912C15.6919 16.9454 13.5674 17.9684 13.5674 19.8063ZM14.375 11.9999C14.375 13.3115 13.3116 14.3748 12 14.3749C10.6883 14.3749 9.62497 13.3116 9.62497 11.9999C9.625 10.6882 10.6883 9.62488 12 9.62488C13.3116 9.62491 14.3749 10.6882 14.375 11.9999ZM15.625 11.9999C15.6249 9.99789 14.002 8.37491 12 8.37488C9.99796 8.37488 8.375 9.99787 8.37497 11.9999C8.37497 14.0019 9.99794 15.6249 12 15.6249C14.002 15.6248 15.625 14.0019 15.625 11.9999ZM14.8174 19.8063C14.8174 19.0157 15.7313 18.5755 16.3495 19.0685C17.2967 19.8238 18.677 19.6683 19.4323 18.7211L20.2101 17.7457L20.2448 17.701C20.9604 16.7555 20.7951 15.4064 19.8626 14.6628C19.2445 14.1699 19.4702 13.1809 20.2411 13.0049C21.4038 12.7394 22.1381 11.5955 21.9035 10.4331L21.8916 10.3778L21.614 9.16187C21.3443 7.98059 20.168 7.24159 18.9868 7.51123C18.2158 7.68725 17.5831 6.89398 17.9261 6.18152L17.95 6.13025C18.4373 5.0491 17.9759 3.77049 16.9012 3.25305L15.7769 2.71179C14.6856 2.18631 13.3748 2.64511 12.8493 3.73645C12.5065 4.44849 11.4926 4.44848 11.1497 3.73657C10.6243 2.64524 9.31359 2.18646 8.22226 2.71191L7.09775 3.2533C6.00614 3.77889 5.54742 5.08994 6.07297 6.18152C6.41595 6.89387 5.78334 7.68693 5.01266 7.51099C3.85001 7.24559 2.69224 7.95741 2.39914 9.10632L2.38583 9.16138L2.10825 10.3776C1.83859 11.5587 2.57746 12.735 3.75864 13.0046L3.7944 13.0134C4.52451 13.2082 4.73873 14.1469 4.16525 14.6392L4.13693 14.6626C3.18966 15.418 3.03411 16.7983 3.78952 17.7456L4.56711 18.7208L4.603 18.7646C5.36558 19.6727 6.71763 19.8118 7.65012 19.0682C8.26833 18.5753 9.18245 19.0155 9.18246 19.8062C9.18246 21.0178 10.1646 22 11.3762 22H12.6236C13.8352 22 14.8174 21.0178 14.8174 19.8063Z" fill="#686868"/>
</svg>

<svg fill="none" viewBox="0 0 24 24" xmlns="http://www.w3.org/2000/svg">
  <path fill="#D9D9D9" fill-rule="evenodd" d="M14.192 19.806c0 .867-.702 1.569-1.569 1.569h-1.247a1.569 1.569 0 0 1-1.569-1.569c0-1.314-1.519-2.046-2.547-1.226a1.569 1.569 0 0 1-2.204-.249l-.778-.975a1.569 1.569 0 0 1 .249-2.205c1.027-.82.652-2.463-.63-2.756a1.569 1.569 0 0 1-1.18-1.878L2.995 9.3a1.569 1.569 0 0 1 1.879-1.18c1.28.293 2.332-1.025 1.762-2.21a1.569 1.569 0 0 1 .733-2.094l1.124-.541a1.568 1.568 0 0 1 2.093.733c.57 1.183 2.256 1.183 2.826 0a1.568 1.568 0 0 1 2.094-.733l1.124.541a1.569 1.569 0 0 1 .733 2.094c-.57 1.185.481 2.503 1.763 2.21a1.569 1.569 0 0 1 1.879 1.181l.277 1.216a1.569 1.569 0 0 1-1.18 1.879c-1.282.292-1.657 1.936-.63 2.755.678.54.79 1.528.25 2.205l-.778.975a1.569 1.569 0 0 1-2.205.249c-1.028-.82-2.547-.088-2.547 1.226ZM12 9a3 3 0 1 1 0 6 3 3 0 0 1 0-6Z" clip-rule="evenodd"/>
  <path fill="url(#Settings-Color-24_svg__a)" fill-rule="evenodd" d="M9.182 19.806c0 1.212.983 2.194 2.194 2.194h1.248a2.194 2.194 0 0 0 2.193-2.194c0-.79.914-1.23 1.532-.738.948.756 2.328.6 3.083-.347l.778-.975c.755-.947.6-2.328-.347-3.083a.944.944 0 0 1 .378-1.658 2.194 2.194 0 0 0 1.65-2.627l-.277-1.216a2.194 2.194 0 0 0-2.627-1.65.944.944 0 0 1-1.06-1.33A2.194 2.194 0 0 0 16.9 3.253l-1.124-.541a2.193 2.193 0 0 0-2.928 1.024.943.943 0 0 1-1.7 0 2.193 2.193 0 0 0-2.927-1.024l-1.124.541a2.194 2.194 0 0 0-1.025 2.929.944.944 0 0 1-1.06 1.329 2.194 2.194 0 0 0-2.627 1.65l-.278 1.217a2.194 2.194 0 0 0 1.65 2.627.944.944 0 0 1 .379 1.658 2.194 2.194 0 0 0-.347 3.083l.777.975a2.194 2.194 0 0 0 3.083.347.944.944 0 0 1 1.532.738Zm2.194.944a.944.944 0 0 1-.944-.944c0-1.838-2.124-2.86-3.561-1.715a.944.944 0 0 1-1.327-.15l-.777-.975a.944.944 0 0 1 .15-1.326c1.436-1.146.912-3.445-.88-3.854a.944.944 0 0 1-.71-1.13l.278-1.216a.944.944 0 0 1 1.13-.71c1.791.409 3.261-1.435 2.464-3.09a.944.944 0 0 1 .441-1.26l1.125-.542a.943.943 0 0 1 1.258.44c.798 1.656 3.155 1.656 3.953 0a.943.943 0 0 1 1.259-.44l1.124.541c.47.227.667.79.44 1.26-.796 1.656.674 3.5 2.466 3.09a.944.944 0 0 1 1.13.711l.278 1.216a.944.944 0 0 1-.71 1.13c-1.792.41-2.317 2.708-.88 3.854a.944.944 0 0 1 .15 1.326l-.778.976a.944.944 0 0 1-1.326.15c-1.437-1.147-3.562-.124-3.562 1.714a.944.944 0 0 1-.943.944h-1.248ZM12 14.375a2.375 2.375 0 1 1 0-4.75 2.375 2.375 0 0 1 0 4.75ZM8.375 12a3.625 3.625 0 1 0 7.25 0 3.625 3.625 0 0 0-7.25 0Z" clip-rule="evenodd"/>
  <defs>
    <linearGradient id="Settings-Color-24_svg__a" x1="12" x2="12" y1="3.119" y2="21.375" gradientUnits="userSpaceOnUse">
      <stop stop-color="#AAA"/>
      <stop offset="1" stop-color="#666"/>
    </linearGradient>
  </defs>
</svg>
